assets/images/icon_mob_4.svg

<svg width="28" height="36" viewBox="0 0 28 36" fill="none" xmlns="http://www.w3.org/2000/svg">
<path d="M14.5284 0.392853C15.2545 0.944536 15.8848 1.61 16.6365 2.13479C18.3026 3.29816 20.1169 4.07465 22.1299 4.40221C23.5787 4.63806 25.0338 4.58703 26.4895 4.59737C27.2316 4.6022 27.626 4.99734 27.6267 5.74625C27.6267 9.8363 27.6157 13.9257 27.6301 18.0157C27.6426 21.4637 26.7006 24.6049 24.691 27.4157C23.4918 29.0928 22.0244 30.5044 20.3934 31.754C18.5356 33.178 16.5392 34.3938 14.5573 35.6316C14.5421 35.6413 14.538 35.6689 14.529 35.6875H14.1842C14.1842 32.9111 14.1842 30.1348 14.1835 27.3591C14.7925 27.3591 15.3979 27.3012 15.9917 27.1757C17.9722 26.7578 19.6749 25.8324 21.0348 24.3201C23.1153 22.0064 23.8897 19.2928 23.316 16.2489C22.8533 13.796 21.5375 11.8403 19.4901 10.4004C17.9019 9.28392 16.1213 8.75017 14.1842 8.72121C14.1842 5.94486 14.1842 3.16851 14.1849 0.392853H14.5297L14.5284 0.392853Z" fill="black"/>
<path d="M14.1836 0.392853C14.1836 3.1692 14.1836 5.94555 14.1829 8.72121L14.1843 8.74603C13.0354 8.73776 11.9155 8.92257 10.8576 9.36461C7.4089 10.8045 5.39319 13.3822 4.94702 17.0958C4.64566 19.6039 5.34561 21.8844 6.93583 23.8435C8.79294 26.1323 11.2272 27.2943 14.1843 27.3329L14.1829 27.3578C14.1829 30.1341 14.1829 32.9105 14.1836 35.6861H13.9767C12.965 35.1717 12.0513 34.4972 11.0921 33.8973C9.19222 32.7084 7.37856 31.4057 5.77316 29.8314C3.33886 27.4447 1.67898 24.6262 1.03144 21.2548C0.837664 20.2424 0.741119 19.2142 0.741119 18.1798C0.741119 14.0456 0.741119 9.91077 0.741119 5.77659C0.741119 4.99803 1.14592 4.60082 1.93276 4.59737C3.11474 4.59185 4.29948 4.64426 5.4787 4.52565C6.85308 4.38704 8.17436 4.0319 9.43496 3.46435C10.848 2.82785 12.1182 1.97756 13.2354 0.901091C13.4395 0.704554 13.6671 0.540428 13.9077 0.392853L14.1836 0.392853Z" fill="black"/>
<path d="M14.1829 8.72121C16.1193 8.75017 17.9005 9.28392 19.4887 10.4004C21.5361 11.8403 22.8526 13.796 23.3146 16.2489C23.8884 19.2928 23.1139 22.0057 21.0334 24.3201C19.6735 25.8317 17.9709 26.7578 15.9903 27.1757C15.3973 27.3005 14.7911 27.3591 14.1822 27.3591L14.1835 27.3343C14.1801 25.42 14.1767 23.5063 14.1725 21.592C14.1994 21.5582 14.2256 21.5237 14.2525 21.4899C15.3345 20.4148 16.4165 19.3404 17.4978 18.2646C18.0184 17.7468 18.5425 17.2323 19.0522 16.7041C19.3852 16.3586 19.4507 15.9186 19.2625 15.5331C19.0659 15.1297 18.6522 14.8987 18.1922 14.9401C17.8874 14.9676 17.6702 15.1504 17.4633 15.3552C16.3724 16.4365 15.2793 17.5164 14.187 18.597C14.1856 15.3138 14.1842 12.0306 14.1829 8.74672L14.1815 8.7219L14.1829 8.72121Z" fill="white"/>
<path d="M14.1732 21.592C14.1767 23.5063 14.1801 25.42 14.1843 27.3343C11.2266 27.2957 8.79295 26.1337 6.93516 23.8449C5.34493 21.8851 4.64498 19.6046 4.94634 17.0972C5.39251 13.3829 7.40822 10.8059 10.8569 9.366C11.9155 8.92397 13.0347 8.73915 14.1836 8.74743C14.185 12.0306 14.1863 15.3138 14.187 18.5977C14.1836 18.6177 14.1808 18.6384 14.1794 18.6584C13.9091 18.9225 13.6236 19.1736 13.3733 19.4563C13.1947 19.6583 13.0919 19.628 12.9168 19.4501C12.2341 18.7529 11.5334 18.0736 10.8418 17.3854C10.5459 17.0916 10.2101 16.9275 9.78667 17.0475C8.99293 17.2723 8.75916 18.186 9.35429 18.7943C10.2453 19.7052 11.1535 20.599 12.0541 21.5003C12.9616 22.4078 13.214 22.4188 14.1719 21.5934L14.1732 21.592Z" fill="white"/>
<path d="M14.1801 18.657C14.1815 18.6363 14.1843 18.6163 14.1877 18.5963C15.28 17.5157 16.3731 16.4358 17.464 15.3545C17.6709 15.1497 17.8881 14.967 18.1929 14.9394C18.6529 14.898 19.066 15.1283 19.2632 15.5324C19.4508 15.9179 19.3859 16.3579 19.0529 16.7034C18.5439 17.2323 18.0191 17.7461 17.4985 18.264C16.4179 19.3397 15.3352 20.4141 14.2532 21.4892C14.1587 21.3699 14.1849 21.2279 14.1843 21.0927C14.1815 20.281 14.1815 19.4687 14.1801 18.657Z" fill="#FE0000"/>
<path d="M14.1801 18.657C14.1808 19.4687 14.1808 20.2811 14.1843 21.0927C14.1843 21.2279 14.1588 21.3693 14.2532 21.4892C14.2263 21.523 14.2001 21.5575 14.1732 21.5913C13.2154 22.4168 12.9637 22.4057 12.0555 21.4982C11.1548 20.5969 10.2466 19.7032 9.35567 18.7922C8.76054 18.1833 8.99432 17.2696 9.78805 17.0454C10.2115 16.9254 10.548 17.0896 10.8431 17.3833C11.5348 18.0716 12.2355 18.7508 12.9182 19.448C13.0933 19.6266 13.1961 19.6563 13.3747 19.4542C13.6243 19.1715 13.9105 18.9212 14.1808 18.6563L14.1801 18.657Z" fill="#FE0000"/>
</svg>

<svg xmlns="http://www.w3.org/2000/svg" width="28" height="36" fill="none"><path fill="#000" d="M14.528.393c.726.552 1.357 1.217 2.109 1.742 1.666 1.163 3.48 1.94 5.493 2.267 1.449.236 2.904.185 4.36.195.742.005 1.136.4 1.137 1.15 0 4.09-.011 8.179.003 12.269.013 3.448-.93 6.589-2.939 9.4-1.2 1.677-2.667 3.088-4.298 4.338-1.857 1.424-3.854 2.64-5.836 3.878-.015.01-.019.037-.028.056h-.345v-8.329c.609 0 1.214-.058 1.808-.183 1.98-.418 3.683-1.344 5.043-2.856 2.08-2.314 2.855-5.027 2.281-8.071-.463-2.453-1.778-4.409-3.826-5.849-1.588-1.116-3.369-1.65-5.306-1.679V.393h.346z"/><path fill="#000" d="m14.184.393-.001 8.328.001.025c-1.149-.008-2.268.177-3.326.619-3.45 1.44-5.465 4.017-5.911 7.73-.301 2.509.399 4.79 1.989 6.749 1.857 2.288 4.291 3.45 7.248 3.489l-.001.025v8.328h-.206c-1.012-.514-1.926-1.189-2.885-1.789-1.9-1.189-3.713-2.491-5.319-4.066-2.434-2.386-4.094-5.205-4.742-8.576a16.4 16.4 0 0 1-.29-3.075V5.777c0-.779.405-1.176 1.192-1.18 1.182-.005 2.366.047 3.546-.071a12.7 12.7 0 0 0 3.956-1.062 13.3 13.3 0 0 0 3.8-2.563c.205-.196.432-.36.673-.508z"/><path fill="#fff" d="M14.183 8.721c1.936.03 3.718.563 5.306 1.68 2.047 1.44 3.364 3.395 3.826 5.848.573 3.044-.201 5.757-2.282 8.071-1.36 1.512-3.062 2.438-5.043 2.856-.593.125-1.199.183-1.808.183l.002-.025-.011-5.742.08-.102 3.245-3.225c.52-.518 1.044-1.033 1.554-1.56.333-.346.399-.786.21-1.172a1.06 1.06 0 0 0-1.07-.593c-.305.028-.522.21-.729.415q-1.637 1.621-3.276 3.242l-.004-9.85-.002-.025z"/><path fill="#fff" d="m14.173 21.592.011 5.742c-2.957-.038-5.391-1.2-7.249-3.49-1.59-1.959-2.29-4.24-1.989-6.747.447-3.714 2.462-6.291 5.91-7.731 1.06-.442 2.179-.627 3.328-.619l.003 9.85-.008.061c-.27.264-.555.516-.806.798-.178.202-.281.172-.456-.006-.683-.697-1.384-1.376-2.075-2.065-.296-.293-.632-.458-1.055-.338-.794.225-1.028 1.139-.433 1.747.891.911 1.8 1.805 2.7 2.706.908.908 1.16.919 2.118.093z"/><path fill="#FE0000" d="m14.18 18.657.008-.06q1.639-1.62 3.276-3.243c.207-.204.424-.387.729-.415.46-.041.873.19 1.07.593.188.386.123.826-.21 1.171-.51.53-1.034 1.043-1.555 1.561q-1.621 1.613-3.245 3.225c-.094-.12-.068-.261-.069-.396z"/><path fill="#FE0000" d="M14.18 18.657q-.001 1.218.004 2.436c0 .135-.025.276.07.396q-.042.052-.08.102c-.959.826-1.21.815-2.118-.093-.901-.901-1.81-1.795-2.7-2.706-.595-.609-.362-1.522.432-1.747.423-.12.76.045 1.055.338.692.689 1.393 1.368 2.075 2.065.175.179.278.208.457.006.25-.282.536-.533.806-.798z"/></svg>
